!!!!SEGMENT: pl-kk--kk-i-3--010-002_anonim--sabbativis-et-in-terra.krn
!!!cenid: 15xx:608
!!!COM: Anonim
!!!COM-rismID: pe30004985
!!!CDT:
!!!CNT:
!!!OPR: Sabbativis
!!!OTL: Et in terra
!!!OMV: 002
!!!PDT:
!!!AGN:
!!!SMS-siglum: PL-Kk
!!!SMS-shelfmark: Kk.I.3
!!!SMS-shelfwork: 010-002 M
!!!SMS-variant:
!!!SMS-altvar:
!!!NIFC-rismSourceID: 1001145493
!!!NIFC-islandoraID: pl-kk:1170
!!!URL-pdf-islandora: https://repozytorium.nifc.pl/islandora/object/pl-kk%3A1170/datastream/PDF/view
!!!URL-scan: https://polish.musicsources.pl/pl/lokalizacje/galeria/rekopisy/5919 @EN{Scan on Polish Music Sources Website} @PL{Skany w portalu Dziedzictwo Muzyki Polskiej w otwartym dostępie}
!!!ONB-nifc: UWAGA: Discantus (s. 54v-57v, skan 0057-0060), Tenor (s. 37v-39v, skan 0210-0212), Bassus (s. 50v-54r, skan 0354-0357)
!!!AIN: 1 bass 1 tenor 1 vox
!!!key: C
**kern	**text	**kern	**text	**kern	**text
*part3	*part3	*part2	*part2	*part1	*part1
*staff3	*staff3	*staff2	*staff2	*staff1	*staff1
*I"Bassus	*	*I"Tenore	*	*I"Discantus	*
*I'B	*	*I'T	*	*I'S	*
*Ibass	*	*Itenor	*	*Ivox	*
*Ivox	*	*ICvox	*	*ICvox	*
*clefF3	*	*clefC3	*	*clefC3	*
*k[]	*	*k[]	*	*k[]	*
*C:	*	*C:	*	*C:	*
*M2/1	*	*M2/1	*	*M2/1	*
=1-	=1-	=1-	=1-	=1-	=1-
!	!	!	!	!LO:TX:t=P:problem=o dziwo całkiem niezły "pionowo" plik. W końcówce tenora "Amen" rozmija się ewidentnie z resztą głosów.(A.G.)	!
1D	Et	1d	Et	1a	Et
*2\right	*	*	*	*	*
2A\	.	1e	in	1a	in
1A\	in	.	.	.	.
=2-	=2-	=2-	=2-	=2-	=2-
*	*	*lig	*	*	*
.	.	1c	ter-	1a	ter-
2F/	ter-	.	.	.	.
1G	.	1B	.	1g	.
*	*	*Xlig	*	*	*
=3-	=3-	=3-	=3-	=3-	=3-
1A	.	1c	.	1e	.
2D/	-ra	1d	-ra	2f/	-ra
1G\	Pax	.	.	1d\	pax
=4-	=4-	=4-	=4-	=4-	=4-
.	.	1G	pax	.	.
*	*	*	*	*2\right	*
2E/	ho-	.	.	2g\	ho-
1F	.	1A	.	2f\	-mi-
.	.	.	.	2a\	.
=5-	=5-	=5-	=5-	=5-	=5-
*custos:C	*	*	*	*	*
1G	-mi-	1B	ho-	1g	.
*	*	*lig	*	*	*
!LO:LB:g=original	!	!	!	!	!
1C	.	1c	-mi-	1e	.
=6-	=6-	=6-	=6-	=6-	=6-
*lig	*	*	*	*	*
1G	-ni-	1B	.	2d/	.
!	!	!	!	!LO:LB:g=original	!
.	.	.	.	1g	.
*	*	*Xlig	*	*	*
*	*	*lig	*	*	*
1D	.	1A	-ni-	.	.
.	.	.	.	2f\	.
*Xlig	*	*	*	*	*
=7-	=7-	=7-	=7-	=7-	=7-
2E/	.	1G	.	2g\	-ni-
2C/	-bus	.	.	2e\	-bus
*	*	*Xlig	*	*	*
1G	bo-	1G	-bus	1d	.
=8-	=8-	=8-	=8-	=8-	=8-
*lig	*	*	*	*	*
1G	-ne	1B	.	2d/	bo-
.	.	.	.	1g	-ne
1C	.	1c	bo-	.	.
.	.	.	.	1e\	.
*Xlig	*	*	*	*	*
=9-	=9-	=9-	=9-	=9-	=9-
1D	.	1A	-ne	.	.
.	.	.	.	1d	vo-
1E	.	1G	vo-	.	.
.	.	.	.	2c/	.
=10-	=10-	=10-	=10-	=10-	=10-
1D	vo-	1A	-lun-	1d	-lun-
*	*	*lig	*	*	*
2D/	-lun-	1F	-ta-	2d/	.
2F/	.	.	.	2A/	-ta-
=11-	=11-	=11-	=11-	=11-	=11-
2G/	.	1E	.	2B/	.
2E/	.	.	.	2c/	.
*	*	*Xlig	*	*	*
1D	.	1F	.	1d	-tis
=12-	=12-	=12-	=12-	=12-	=12-
!	!	!LO:PB:g=original	!	!	!
1C	-ta-	1F	-tis	1e	.
*custos:F	*	*	*	*	*
!	!	!	!	!LO:LB:g=original	!
1D	-tis	1G	.	1f	lau-
=13-	=13-	=13-	=13-	=13-	=13-
!LO:LB:g=original	!	!	!	!	!
1F	lau-	1d	lau-	1f	-da-
*lig	*	*lig	*	*	*
1G	-da-	1c	-da-	2d/	.
.	.	.	.	1g	.
=14-	=14-	=14-	=14-	=14-	=14-
1D	.	1B	.	.	.
.	.	.	.	2f\	.
*Xlig	*	*	*	*	*
1d	.	1A	.	1g	-mus
=15-	=15-	=15-	=15-	=15-	=15-
2G/	.	1G	.	1g	te
2B\	-mus	.	.	.	.
*	*	*Xlig	*	*	*
1A	te	1B	-mus	1a	.
=16-	=16-	=16-	=16-	=16-	=16-
1G	.	1c	.	2d/	.
.	.	.	.	2g\	be-
1D	be-	1d	te	2f\	-ne-
.	.	.	.	2d/	.
=17-	=17-	=17-	=17-	=17-	=17-
2F/	-ne-	1d	be-	2a\	.
2G/	.	.	.	2g\	-di-
*	*	*lig	*	*	*
2A/	.	1d	-ne-	2e\	.
2F/	.	.	.	2f\	.
=18-	=18-	=18-	=18-	=18-	=18-
*	*	*	*	*lig	*
1G	.	1c	.	1d	-ci-
1C	.	1B	.	1e	.
*	*	*Xlig	*	*Xlig	*
=19-	=19-	=19-	=19-	=19-	=19-
*custos:G	*	*	*	*	*
!	!	!	!	!LO:LB:g=original	!
1D	.	1c	.	1d	-mus
!LO:PB:g=original	!	!	!	!	!
1G	-di-	1A	-di-	2B/	.
.	.	.	.	1G/	.
=20-	=20-	=20-	=20-	=20-	=20-
2G/	-ci-	1G	-ci-	.	.
2B\	.	.	.	1g	te
1A	-mus	1B	-mus	.	.
.	.	.	.	2f\	.
=21-	=21-	=21-	=21-	=21-	=21-
1G	te	1c	te	1g	a-
2D/	a-	1d	A-	2f\	-do-
2G/	-do-	.	.	2g\	.
=22-	=22-	=22-	=22-	=22-	=22-
2F/	-ra-	1d	-do-	2d/	-ra-
2G/	.	.	.	1g	.
*	*	*lig	*	*	*
1A	.	1d	.	.	.
.	.	.	.	2f\	.
=23-	=23-	=23-	=23-	=23-	=23-
1G	.	1c	.	1g	.
2C/	.	1B	.	1e	.
1c\	.	.	.	.	.
*	*	*Xlig	*	*	*
=24-	=24-	=24-	=24-	=24-	=24-
*	*	*custos:A	*	*	*
.	.	1c	.	2e/	.
2A/	-mus	.	.	2f\	.
*	*	*lig	*	*	*
!	!	!LO:LB:g=original	!	!	!
1B	.	1A	-ra-	2g\	.
.	.	.	.	2e/	.
=25-	=25-	=25-	=25-	=25-	=25-
*custos:A	*	*	*	*	*
2c\	.	1G	.	1f	-mus
!LO:LB:g=original	!	!	!	!	!
1A	.	.	.	.	.
!	!	!	!	!LO:LB:g=original	!
.	.	1F	.	2e\	.
2F/	te	.	.	2f\	.
*	*	*Xlig	*	*	*
=26-	=26-	=26-	=26-	=26-	=26-
*	*	*lig	*	*	*
2G/	glo-	1A	-mus	1d	te
1G	.	.	.	.	.
.	.	1G	.	2d/	.
2E/	-ri-	.	.	2e/	glo-
*	*	*Xlig	*	*	*
=27-	=27-	=27-	=27-	=27-	=27-
2F/	.	1G	te	2d/	-ri-
2G/	.	.	.	2B/	-fi-
2C/	-fi-	1d	glo-	1c	-ca-
1c\	.	.	.	.	.
=28-	=28-	=28-	=28-	=28-	=28-
.	.	1e	-ri-	1G	.
2B\	-ca-	.	.	.	.
*	*	*lig	*	*	*
2c\	.	1d	-fi-	1c	.
2C/	.	.	.	.	.
=29-	=29-	=29-	=29-	=29-	=29-
*lig	*	*	*	*	*
1G	-mus	1c	.	2d/	.
.	.	.	.	1g	.
1D	.	1B	.	.	.
.	.	.	.	2f\	.
*Xlig	*	*	*	*	*
=30-	=30-	=30-	=30-	=30-	=30-
2E/	.	1A	.	2g\	.
2C/	.	.	.	2e/	.
*custos:E	*	*	*	*	*
1G	.	1G	.	2d/	.
.	.	.	.	1g\	-mus
*	*	*Xlig	*	*	*
=31-	=31-	=31-	=31-	=31-	=31-
!LO:LB:g=original	!	!	!	!	!
1E	.	1B	-ca-	.	.
!	!	!	!	!LO:TX:a:t=???	!
.	.	.	.	2e\	.
!	!	!	!	!LO:PB:g=original	!
0F;>	te	1c	-mus	0f;	te
=32-	=32-	=32-	=32-	=32-	=32-
!	!	!LO:TX:t=P:barlines.color=red:problem	!	!	!
.	.	1d	te	.	.
=-	=-	=||	=-	=-	=-
1G	gra-	1G	Gra-	2d/	gra-
.	.	.	.	1g	-ci-
=33-	=33-	=33-	=33-	=33-	=33-
1D	-ci-	1A	-(ci)-	.	.
.	.	.	.	2f/	-as
1G	-as	1B	-(a)s	1g	a-
=34-	=34-	=34-	=34-	=34-	=34-
*	*	*lig	*	*	*
1C	a-	1c	a-	2g\	.
.	.	.	.	2e/	.
1G	.	1B	.	1d	-gi-
*	*	*Xlig	*	*	*
=35-	=35-	=35-	=35-	=35-	=35-
*	*	*custos:G	*	*	*
1D	-gi-	1A	-gi-	1d	-mus
!	!	!LO:LB:g=original	!	!	!
2E/	.	1G	-mus	1B	ti-
2G/	.	.	.	.	.
=36-	=36-	=36-	=36-	=36-	=36-
2F/	-mus	1c	ti-	2A/	.
2A\	.	.	.	2c/	.
1G	.	1d	-bi	1B	-bi
=37-	=37-	=37-	=37-	=37-	=37-
2D/	ti-	1d	.	2A/	pro-
*custos:F	*	*	*	*	*
1G	-bi	.	.	1B	.
.	.	1d	pro-	.	.
!LO:LB:g=original	!	!	!	!	!
2F/	pro-	.	.	2A/	-pter
=38-	=38-	=38-	=38-	=38-	=38-
*	*	*	*	*custos:c	*
2E/	-pter	1e	.	2B/	.
!	!	!	!	!LO:LB:g=original	!
2C/	.	.	.	2c/	.
1D	.	1f	-pt(er)	1A	.
=39-	=39-	=39-	=39-	=39-	=39-
2C/	ma-	1g	ma-	1c	ma-
1c	-gna(m)	.	.	.	.
*	*	*lig	*	*	*
.	.	1f	.	1d	-gna(m)
2B\	glo-	.	.	.	.
=40-	=40-	=40-	=40-	=40-	=40-
1c	-ri-	1e	-gna(m)	2e\	.
.	.	.	.	1g	.
1G	-a(m)	1d	.	.	.
.	.	.	.	2g\	.
*	*	*Xlig	*	*	*
=41-	=41-	=41-	=41-	=41-	=41-
*	*	*lig	*	*	*
1C	.	1e	glo-	2e/	glo-
.	.	.	.	1c	.
1G	.	1d	.	.	.
.	.	.	.	2B/	.
*	*	*Xlig	*	*	*
=42-	=42-	=42-	=42-	=42-	=42-
*	*	*lig	*	*	*
2A\	.	1c	-ri-	2c/	-ri-
2F/	.	.	.	2A/	-am
1G	.	1B	.	2G/	.
.	.	.	.	2g\	tu-
*	*	*Xlig	*	*	*
=43-	=43-	=43-	=43-	=43-	=43-
2D/	.	1A	-am	2f\	.
2F/	.	.	.	2a\	.
2E/	tu-	1B	.	2g\	.
*custos:C	*	*	*	*	*
2D/	.	.	.	2f\	.
=44-	=44-	=44-	=44-	=44-	=44-
*	*	*lig	*	*	*
*	*	*	*	*custos:d	*
!LO:LB:g=original	!	!	!	!	!
1C	.	1c	tu-	1e	.
*lig	*	*	*	*	*
!	!	!	!	!LO:LB:g=original	!
1G	.	1B	.	2d/	.
.	.	.	.	1g	.
=45-	=45-	=45-	=45-	=45-	=45-
1D	.	1A	.	.	.
.	.	.	.	2f\	.
*Xlig	*	*	*	*	*
1d	-am	1G	.	0g;<	-am
*	*	*Xlig	*	*	*
=46-	=46-	=46-	=46-	=46-	=46-
!	!	!LO:ART:color=red	!	!	!
!	!	!LO:TX:t=P:barlines.color=red:problem	!	!	!
1d;<	.	1G,<	-a(m)	.	.
=-	=-	=||	=-	=-	=-
1D	Do-	1d	Do-	1f	Do-
=47-	=47-	=47-	=47-	=47-	=47-
*	*	*custos:B	*	*	*
1A	-mi-	1c	-mi-	2e/	-mi-
.	.	.	.	2c/	.
!	!	!LO:LB:g=original	!	!	!
2G/	-ne	1B	-ne	1d	-ne
1G\	.	.	.	.	.
=48-	=48-	=48-	=48-	=48-	=48-
*	*	*lig	*	*	*
.	.	1c	.	1a	.
2F/	.	.	.	.	.
*lig	*	*	*	*	*
1G	de-	1B	.	2d/	.
.	.	.	.	1g\	de-
*	*	*Xlig	*	*	*
=49-	=49-	=49-	=49-	=49-	=49-
1D	-us	1A	.	.	.
.	.	.	.	2f\	-us
*Xlig	*	*	*	*	*
1d	.	1G	.	1g	.
=50-	=50-	=50-	=50-	=50-	=50-
1A	rex	1c	de-	1e	.
2D/	.	1d	-us	2f\	.
2G/	.	.	.	2g\	.
=51-	=51-	=51-	=51-	=51-	=51-
*custos:G	*	*	*	*custos:g	*
2F/	.	1d	.	2a\	.
!LO:PB:g=original	!	!	!	!LO:LB:g=original	!
1G	ce-	.	.	2g\	.
.	.	1d	re	2G/	rex
2F/	.	.	.	2A/	.
=52-	=52-	=52-	=52-	=52-	=52-
2E/	.	1g	ce-	2G/	cel-
2C/	.	.	.	1c	-le-
1D	.	1f	.	.	.
.	.	.	.	2B/	.
=53-	=53-	=53-	=53-	=53-	=53-
2C/	.	1e	-le-	1c	.
1c	-le-	.	.	.	.
.	.	1d	.	2G/	.
2B\	.	.	.	2g\	.
=54-	=54-	=54-	=54-	=54-	=54-
1c	.	1c	.	2e/	.
.	.	.	.	1c	.
2A/	.	1e	.	.	.
2G/	.	.	.	2g\	.
=55-	=55-	=55-	=55-	=55-	=55-
*	*	*lig	*	*	*
1F	.	1f	.	1a	.
1G	.	1d	.	1g	.
=56-	=56-	=56-	=56-	=56-	=56-
1A	.	1c	-stis	1e	-stis
*	*	*Xlig	*	*	*
0D	-stis	1d	.	0f	.
=57-	=57-	=57-	=57-	=57-	=57-
.	.	1d	.	.	.
*lig	*	*	*	*	*
*	*	*	*	*custos:g	*
1E	de-	1G	de-	2e/	de-
!	!	!	!	!LO:LB:g=original	!
.	.	.	.	2g\	.
=58-	=58-	=58-	=58-	=58-	=58-
1D	.	1B	.	1f	-us
*Xlig	*	*	*	*	*
*custos:G	*	*	*	*	*
*	*	*lig	*	*	*
1C	-us	1c	-us	1e	.
=59-	=59-	=59-	=59-	=59-	=59-
!LO:LB:g=original	!	!	!	!	!
1G	.	1B	.	1d	pa-
*	*	*Xlig	*	*	*
*	*	*custos:A	*	*	*
2C/	.	1c	.	2e/	-ter
2E/	.	.	.	2c/	om-
=60-	=60-	=60-	=60-	=60-	=60-
*	*	*lig	*	*	*
!	!	!LO:LB:g=original	!	!	!
1D	pa-	1A	pa-	1d	-ni-
2E/	.	1G	.	2B/	.
1C/	.	.	.	2c/	.
*	*	*Xlig	*	*	*
=61-	=61-	=61-	=61-	=61-	=61-
.	.	1c	.	2A/	.
1F	.	.	.	1a	.
.	.	1d	-ter	.	.
2D/	.	.	.	2f\	.
=62-	=62-	=62-	=62-	=62-	=62-
*	*	*lig	*	*	*
!	!	!	!	!LO:TX:a:t=P:problem=korekta 2e	!
2C/	.	1e	.	2d/	.
1c	.	.	.	1a	.
.	.	1d,	.	.	.
2B\	-ter	.	.	1g\	.
*	*	*Xlig	*	*	*
=63-	=63-	=63-	=63-	=63-	=63-
*	*	*lig	*	*	*
1A	om-	1c	om-	.	.
.	.	.	.	2f\	.
1G	-ni-	1B	.	1g	-po-
*	*	*Xlig	*	*	*
=64-	=64-	=64-	=64-	=64-	=64-
*	*	*	*	*custos:f	*
1A	.	1c	-ni-	1e	.
!	!	!	!	!LO:PB:g=original	!
2D/	.	1d	.	2f/	.
1G\	-po-	.	.	2d/	.
=65-	=65-	=65-	=65-	=65-	=65-
*	*	*lig	*	*	*
.	.	1A	-po-	2e/	.
*custos:G	*	*	*	*	*
2F/	.	.	.	2f/	.
!LO:LB:g=original	!	!	!	!	!
1G	.	1G	.	1d	.
*	*	*Xlig	*	*	*
=66-	=66-	=66-	=66-	=66-	=66-
!	!	!LO:TX:t=P:barlines.color=red:problem	!	!	!
1C;>	-tens	1G	-te(n)s	1e;>	-tens
=-	=-	=||	=-	=-	=-
1F	Do-	1A	Do-	1f	Do-
=67-	=67-	=67-	=67-	=67-	=67-
1E	-mi-	1G	-(mi)-	2g\	-mi-
.	.	.	.	2e/	.
1D	-ne	1F	-ne	1f	-ni
=68-	=68-	=68-	=68-	=68-	=68-
1C	fi-	1G	fi-	1e	fi-
1c	.	1A	.	1e	.
=69-	=69-	=69-	=69-	=69-	=69-
2F/	.	1A	-li	2f\	.
1A	-li-	.	.	1e	.
.	.	1c	u-	.	.
*	*	*	*	*custos:b	*
2E/	.	.	.	1c\	.
=70-	=70-	=70-	=70-	=70-	=70-
*	*	*custos:e	*	*	*
2F/	-um	1d	-ni	.	.
!	!	!	!	!LO:LB:g=original	!
2G/	.	.	.	2B/	-li
!	!	!LO:PB:g=original	!	!	!
2C/	ge-	1e	ge-	2c/	.
2c\	.	.	.	2g\	u-
=71-	=71-	=71-	=71-	=71-	=71-
*custos:F	*	*	*	*	*
*	*	*lig	*	*	*
2A\	.	1f	.	2a\	-ni
!LO:LB:g=original	!	!	!	!	!
2F/	.	.	.	1a	ge-
1G	.	1d	.	.	.
.	.	.	.	1g\	.
*	*	*Xlig	*	*	*
=72-	=72-	=72-	=72-	=72-	=72-
1A	-ni-	1c	-ni-	.	.
.	.	.	.	2f\	-ni-
1G	-te	1d	-te	1g	-te
=73-	=73-	=73-	=73-	=73-	=73-
2F/	.	1d	.	2a\	.
2G/	.	.	.	2g\	.
2A/	Je-	1c	Je-	2e\	Je-
1F\	.	.	.	2f\	.
=74-	=74-	=74-	=74-	=74-	=74-
.	.	1f	-ſu	2c/	.
2D/	-su	.	.	1d	.
1A	.	1e	chri-	.	.
.	.	.	.	2c/	-su
=75-	=75-	=75-	=75-	=75-	=75-
*	*	*lig	*	*	*
2D/	.	1f	.	2d/	.
2d\	cri-	.	.	1a	cri-
2B\	.	1d	.	.	.
!	!	!	!	!LO:LB:g=original	!
2G/	.	.	.	1g	.
=76-	=76-	=76-	=76-	=76-	=76-
1A	.	1c	.	.	.
.	.	.	.	2f\	-ste
*	*	*Xlig	*	*	*
!LO:TX:t=P:problem=kreska pseudotaktowa	!	!LO:TX:t=P:barlines.color=red:problem	!	!	!
1G;>	-ste	1d	-ſte	1g;<	.
=77-	=77-	=77-	=77-	=77-	=77-
*custos:C	*	*	*	*	*
1G	spi-	1d	Spi-	1g	Spi-
!LO:LB:g=original	!	!	!	!	!
2C/	-ri-	1e	-ri-	2e\	-ri-
2E/	.	.	.	2c/	.
=78-	=78-	=78-	=78-	=78-	=78-
1D	.	1f	-tus	1d	-tus
2C/	-tus	1g	.	2e\	et
1c\	et	.	.	1g\	al-
=79-	=79-	=79-	=79-	=79-	=79-
.	.	1e	et	.	.
1A	al-	.	.	1a	-me
.	.	1f	al-	.	.
1B-X\	-me	.	.	1f\	or-
=80-	=80-	=80-	=80-	=80-	=80-
*	*	*custos:e	*	*	*
.	.	1d	-me	.	.
1G	or-	.	.	1g	-pha-
!	!	!LO:LB:g=original	!	!	!
.	.	1e	or-	.	.
1A\	-pha-	.	.	1e\	.
=81-	=81-	=81-	=81-	=81-	=81-
*	*	*lig	*	*	*
.	.	1c	-pha-	.	.
2F/	.	.	.	2f\	.
*	*	*	*	*custos:e	*
2G/	.	1B	.	2d/	.
!	!	!	!	!LO:LB:g=original	!
2E/	.	.	.	1e	.
=82-	=82-	=82-	=82-	=82-	=82-
1F	.	1A	.	.	.
.	.	.	.	2c/	-no-
*	*	*Xlig	*	*	*
1D	.	1B	-no-	1d	-ru(m)
=83-	=83-	=83-	=83-	=83-	=83-
2C/	-no-	1c	-ru(m)	2e\	.
1c	-ru(m)	.	.	2f\	.
.	.	1d	.	2g\	Pa-
*custos:c	*	*	*	*	*
2Bny\	.	.	.	2d/	-ra-
=84-	=84-	=84-	=84-	=84-	=84-
*	*	*lig	*	*	*
1c	.	1A	pa-	2e\	-cli-
.	.	.	.	2f\	.
2d\	.	1G	.	1g	.
1B\	Pa-	.	.	.	.
*	*	*Xlig	*	*	*
=85-	=85-	=85-	=85-	=85-	=85-
.	.	1F	-ra-	1a	.
2A/	-ra-	.	.	.	.
1B	-cli-	1G	-cli-	0g;<	-te
=86-	=86-	=86-	=86-	=86-	=86-
!LO:TX:t=P:problem=kreska pseudotaktowa	!	!LO:TX:t=P:barlines.color=red:problem	!	!	!
1B;>	-te	1G	-te	.	.
2B\	Do-	1G	Do-	1d	Do-
1G\	.	.	.	.	.
=87-	=87-	=87-	=87-	=87-	=87-
*	*	*lig	*	*	*
.	.	1c	.	1f	-mi-
2F/	-mi-	.	.	.	.
1G	-ne	1B	.	2d/	-ne-
!	!	!	!	!LO:LB:g=original	!
.	.	.	.	1g	.
*	*	*Xlig	*	*	*
=88-	=88-	=88-	=88-	=88-	=88-
1A	.	1c	-mi-	.	.
.	.	.	.	2e\	.
2F/	.	1d	-ne	2f\	.
1G\	.	.	.	1d\	.
=89-	=89-	=89-	=89-	=89-	=89-
.	.	1d	.	.	.
1D	de-	.	.	2f\	.
.	.	1e	de-	1g	-ne
2C/	-us	.	.	.	.
=90-	=90-	=90-	=90-	=90-	=90-
*custos:F	*	*	*	*	*
1D	.	1d,	-us	1f	de-
*	*	*lig	*	*lig	*
!LO:LB:g=original	!	!	!	!	!
1F	a-	1c	a-	1f	-us
=91-	=91-	=91-	=91-	=91-	=91-
*lig	*	*	*	*	*
1G	-gnus	1B	.	1d	.
*	*	*	*	*Xlig	*
*	*	*custos:A	*	*	*
1C	.	1c	.	2e\	a-
.	.	.	.	1g\	-gnus
*Xlig	*	*Xlig	*	*	*
=92-	=92-	=92-	=92-	=92-	=92-
*	*	*lig	*	*	*
!	!	!LO:LB:g=original	!	!	!
1D	.	1A	-gnus	.	.
.	.	.	.	2f\	.
1d	de-	1G	.	1g	.
*	*	*Xlig	*	*	*
=93-	=93-	=93-	=93-	=93-	=93-
1c	-i	1c	de-	1e	de-
2B\	.	1d	-i	1d	-i
1G\	fi-	.	.	.	.
=94-	=94-	=94-	=94-	=94-	=94-
.	.	1d	.	2B/	.
2F/	-li-	.	.	2A/	.
2E/	.	1e	fi-	2G/	.
!	!	!	!	!LO:PB:g=original	!
2C/	-us	.	.	1c\	fi-
=95-	=95-	=95-	=95-	=95-	=95-
1D	pa-	1d	-li-	.	.
.	.	.	.	2B/	-li-
*	*	*lig	*	*	*
1F	.	1c	-us	2c/	-us
.	.	.	.	2A/	.
=96-	=96-	=96-	=96-	=96-	=96-
*lig	*	*	*	*	*
1G	.	1B	.	2G/	.
.	.	.	.	1g	Pa-
*	*	*Xlig	*	*	*
1C	.	1c	.	.	.
.	.	.	.	2e\	.
*Xlig	*	*	*	*	*
=97-	=97-	=97-	=97-	=97-	=97-
*	*	*lig	*	*lig	*
1D	.	1A	pa-	1f	.
*custos:E	*	*	*	*	*
1G	.	1G	.	1d	.
*	*	*Xlig	*	*Xlig	*
=98-	=98-	=98-	=98-	=98-	=98-
!LO:LB:g=original	!	!	!	!	!
1E	.	1c	-tris	1e	.
!LO:TX:t=P:problem=kreska pseudotaktowa	!	!LO:TX:t=P:barlines.color=red:problem	!	!	!
1D;	-tris	1d	.	1f;<	-tris
=99-	=99-	=99-	=99-	=99-	=99-
1E	Pri-	1g	Pri-	2e/	Pri-
.	.	.	.	1c	-mo
1D	-mo	1f	-mo	.	.
.	.	.	.	2B/	ge-
=100-	=100-	=100-	=100-	=100-	=100-
2C/	ge-	1e	.	1c	.
2c\	.	.	.	.	.
*	*	*lig	*	*	*
2A\	.	1f	ge-	2c/	.
2F/	.	.	.	2A/	.
=101-	=101-	=101-	=101-	=101-	=101-
*lig	*	*	*	*	*
*	*	*	*	*custos:g	*
1G	-ni-	1d	.	2G/	.
!	!	!	!	!LO:LB:g=original	!
.	.	.	.	2g\	.
*	*	*Xlig	*	*	*
1A	.	1c	-ni-	1e	.
*Xlig	*	*	*	*	*
=102-	=102-	=102-	=102-	=102-	=102-
2F/	.	1d	-tus	1d	.
1G	-tus	.	.	.	.
.	.	1d	ma-	2B/	-ni-
2F/	Ma-	.	.	2A/	.
=103-	=103-	=103-	=103-	=103-	=103-
*	*	*custos:f	*	*	*
2E/	-ri-	1e	.	2G/	-tus
*custos:F	*	*	*	*	*
2C/	.	.	.	1c	Ma-
!LO:LB:g=original	!	!LO:LB:g=original	!	!	!
1F	-e	1f	-ri-	.	.
.	.	.	.	2A/	-ri-
=104-	=104-	=104-	=104-	=104-	=104-
1G	vir-	1d	-e	1B	-e
2C/	-gi-	1e	vir-	1c,	.
1c\	-nis	.	.	.	.
=105-	=105-	=105-	=105-	=105-	=105-
.	.	1d	-gi-	2G/	.
2B\	.	.	.	2g\	vir-
*	*	*lig	*	*	*
2A\	.	1c	-nis	2e\	-gi-
2F/	.	.	.	2a\	.
=106-	=106-	=106-	=106-	=106-	=106-
1G	.	1B	.	1g	-nis
*	*	*Xlig	*	*	*
2E/	.	1c	.	2g\	.
*	*	*	*	*custos:f	*
1F\	.	.	.	1a\	ma-
=107-	=107-	=107-	=107-	=107-	=107-
*	*	*lig	*	*	*
.	.	1A	ma-	.	.
!	!	!	!	!LO:LB:g=original	!
2D/	.	.	.	2f\	.
*	*	*	*	*lig	*
1G	ma-	1G	.	1g	.
*	*	*Xlig	*	*	*
=108-	=108-	=108-	=108-	=108-	=108-
1A	.	1c	.	1e	.
*	*	*	*	*Xlig	*
!LO:TX:t=P:problem=kreska pseudotaktowa	!	!LO:TX:t=P:barlines.color=red:problem	!	!	!
1D;>	-tris	1d	-tris	1a;<	-tris
=109-	=109-	=109-	=109-	=109-	=109-
*custos:A	*	*	*	*	*
1D	qui	1f	Qui	1a	Qui
!LO:LB:g=original	!	!	!	!	!
1A	tol-	1e	tol-	1a	tol-
=110-	=110-	=110-	=110-	=110-	=110-
*	*	*lig	*	*	*
2D/	-lis	1f	.	2f\	.
1d	.	.	.	1a	.
.	.	1d	.	.	.
2B\	.	.	.	1g\	.
=111-	=111-	=111-	=111-	=111-	=111-
1A	.	1c	.	.	.
.	.	.	.	2f\	.
*	*	*Xlig	*	*	*
1G	.	1d	-lis	1g	-lis
=112-	=112-	=112-	=112-	=112-	=112-
1B-X	pec-	1d	pec-	2f\	pec-
.	.	.	.	2g\	-ca-
2F/	-ca-	1c	-(ca)-	2a\	-ta
2A/	.	.	.	2f\	mu(n)-
=113-	=113-	=113-	=113-	=113-	=113-
*	*	*	*	*custos:G	*
1G	-ta	1d	-ta	1g	.
!	!	!	!	!LO:LB:g=original	!
1E	.	1e	.	1G	.
=114-	=114-	=114-	=114-	=114-	=114-
*	*	*lig	*	*	*
1D	mu(n)-	1f	mu(n)-	1d	.
1G	.	1d	.	1B	.
=115-	=115-	=115-	=115-	=115-	=115-
2C/	.	1c	.	2c/	.
1c	.	.	.	2A/	-di
*	*	*Xlig	*	*	*
*	*	*custos:f	*	*	*
.	.	1d	-di	1G	.
2Bny\	-di	.	.	.	.
=116-	=116-	=116-	=116-	=116-	=116-
*custos:C	*	*	*	*	*
!	!	!LO:LB:g=original	!	!	!
2c\	.	1e	mi-	2c/	mi-
!LO:LB:g=original	!	!	!	!	!
2C/	.	.	.	1c	-se-
1G	mi-	1d	.	.	.
.	.	.	.	2B/	-re-
=117-	=117-	=117-	=117-	=117-	=117-
*	*	*lig	*	*	*
2A/	-se-	1c	-ſe-	2A/	-re
2F/	-re-	.	.	2a\	.
*lig	*	*	*	*	*
1G	.	1B	-re-	2g\	.
.	.	.	.	1g,	.
*	*	*Xlig	*	*	*
=118-	=118-	=118-	=118-	=118-	=118-
1E	.	1c	.	.	.
.	.	.	.	2e\	.
*Xlig	*	*lig	*	*	*
1D	-re	1A	-re	1f	.
=119-	=119-	=119-	=119-	=119-	=119-
1d	No-	1G	.	1g	.
*	*	*Xlig	*	*	*
1c	.	1c	no-	2e/	No-
*	*	*	*	*custos:B	*
.	.	.	.	2c/	.
=120-	=120-	=120-	=120-	=120-	=120-
*	*	*lig	*	*	*
!	!	!	!	!LO:LB:g=original	!
2G/	.	1d	-bis	2B/	.
2B/	.	.	.	2G/	.
1A	.	1c	.	1A	-bis
*	*	*Xlig	*	*	*
=121-	=121-	=121-	=121-	=121-	=121-
!	!	!LO:TX:t=P:barlines.color=red:problem	!	!	!
1G;	-bis	1d	.	1B;>	.
1G	qui	1g	Qui	1B	Qui
=122-	=122-	=122-	=122-	=122-	=122-
*	*	*lig	*	*	*
2D/	toll-	1f	tol-	1A	tol-
*custos:G	*	*	*	*	*
2F/	.	.	.	.	.
!LO:LB:g=original	!	!	!	!	!
2G/	.	1e	.	2B/	.
2A/	.	.	.	2c/	.
*	*	*Xlig	*	*	*
=123-	=123-	=123-	=123-	=123-	=123-
2F/	.	1f	.	2A/	.
1D	.	.	.	2d/	.
.	.	1g	-lis	2B/	.
2C/	.	.	.	2c/	-lis
=124-	=124-	=124-	=124-	=124-	=124-
*	*	*lig	*	*	*
1D	-lis	1f	.	2A/	.
.	.	.	.	1a	pec-
*lig	*	*	*	*	*
1A	.	1e	.	.	.
*	*	*	*	*custos:f	*
.	.	.	.	2a\	-ca-
*	*	*Xlig	*	*	*
=125-	=125-	=125-	=125-	=125-	=125-
!	!	!	!	!LO:PB:g=original	!
1D	.	1d,	.	1f	.
*Xlig	*	*	*	*	*
2E/	Pec-	1g	pec-	1e	-ta
2C/	-ca-	.	.	.	.
=126-	=126-	=126-	=126-	=126-	=126-
1G	-ta	1g	-ca-	1d	.
*	*	*lig	*	*	*
2D/	.	1f	-ta	2d/	mu(n)-
2F/	.	.	.	2c/	.
=127-	=127-	=127-	=127-	=127-	=127-
*	*	*custos:f	*	*	*
2G/	.	1e	.	2B/	.
2A/	.	.	.	2c/	.
*	*	*Xlig	*	*	*
!	!	!LO:PB:g=original	!	!	!
2F/	.	1f	mu(n)-	2A/	-di
1D/	mu(n)-	.	.	2d/	.
=128-	=128-	=128-	=128-	=128-	=128-
.	.	1g	-di	2B/	.
*custos:D	*	*	*	*	*
2C/	.	.	.	2c/	.
*	*	*lig	*	*	*
!LO:LB:g=original	!	!	!	!	!
1D	.	1f	.	2A/	.
.	.	.	.	1a\	sus-
=129-	=129-	=129-	=129-	=129-	=129-
1A	-di	1e	.	.	.
.	.	.	.	2a\	-ci-
1D	.	1d	.	1f	.
*	*	*Xlig	*	*	*
=130-	=130-	=130-	=130-	=130-	=130-
*	*	*lig	*	*	*
1G	sus-	1d	ſus-	2g\	.
.	.	.	.	2e/	.
2C/	-ci-	1c	.	2c/	.
!	!	!	!	!LO:LB:g=original	!
2E/	.	.	.	1d	.
*	*	*Xlig	*	*	*
=131-	=131-	=131-	=131-	=131-	=131-
1D	-pe	1B	-ci-	.	.
.	.	.	.	1e	.
2C/	.	1c	.	.	.
1c\	de-	.	.	2e\	-pe
=132-	=132-	=132-	=132-	=132-	=132-
.	.	1A	-pe	2f\	.
2A\	-pre-	.	.	1g	de-
2B\	-ca-	1G	.	.	.
1d\	-ci-	.	.	2e\	.
=133-	=133-	=133-	=133-	=133-	=133-
.	.	1c	de-	1a	-pre-
1c	-o-	.	.	.	.
.	.	1d	-pre-	2g\	-ca-
2B\	.	.	.	1a\	-ci-
=134-	=134-	=134-	=134-	=134-	=134-
1A	.	1c	-ca-	.	.
.	.	.	.	2a\	-o-
2F/	.	1d	-ti-	1g	-ne(m)
2G/	.	.	.	.	.
=135-	=135-	=135-	=135-	=135-	=135-
1E	.	1e	-o-	2g\	No-
*	*	*	*	*lig	*
.	.	.	.	1f	.
2D/	.	1f	.	.	.
!LO:LB:g=original	!	!	!	!	!
1d\	.	.	.	1e\	.
*	*	*	*	*Xlig	*
=136-	=136-	=136-	=136-	=136-	=136-
.	.	1g	-ne(m)	.	.
2c\	-nem	.	.	2d/	.
*	*	*lig	*	*	*
2d\	.	1f	.	1a	.
2D/	no-	.	.	.	.
=137-	=137-	=137-	=137-	=137-	=137-
*lig	*	*	*	*	*
1A	.	1e	.	2a\	.
.	.	.	.	2f\	.
1B	.	1d	.	2g\	.
!	!	!	!	!LO:LB:g=original	!
.	.	.	.	1a\	-stra(m)
*Xlig	*	*Xlig	*	*	*
=138-	=138-	=138-	=138-	=138-	=138-
1A	.	1c	no-	.	.
.	.	.	.	1a;<	.
*	*	*custos:g	*	*	*
!LO:TX:t=P:problem=kreska pseudotaktowa	!	!LO:TX:t=P:barlines.color=red:problem	!	!	!
1D;>	-stra(m)	1d	-ſtram	.	.
!	!	!	!	!LO:TX:a:t=P:problem=brak pauzy?	!
.	.	.	.	2ryy	.
=139-	=139-	=139-	=139-	=139-	=139-
!	!	!LO:LB:g=original	!	!	!
2C/	Ad	1g,	Ad	1e	Ad-
1c	Ma-	.	.	.	.
.	.	1f	ma-	1d	-Ma-
2B\	.	.	.	.	.
=140-	=140-	=140-	=140-	=140-	=140-
*	*	*lig	*	*	*
2c\	-ri-	1e	-ri-	2e\	-ri-
1A	.	.	.	1c	.
.	.	1d	.	.	.
2G/	.	.	.	2B/	-e
*	*	*Xlig	*	*	*
=141-	=141-	=141-	=141-	=141-	=141-
2A/	.	1c	-e	2c/	.
*custos:E	*	*	*	*	*
2F/	-e	.	.	1A	glo-
!LO:LB:g=original	!	!	!	!	!
1E	glo-	1e	glo-	.	.
.	.	.	.	2G/	.
=142-	=142-	=142-	=142-	=142-	=142-
*	*	*lig	*	*	*
2D/	.	1f	.	2A/	.
1d	.	.	.	2F/	.
.	.	1d	.	2G/	.
2B\	.	.	.	2g\	.
*	*	*Xlig	*	*	*
=143-	=143-	=143-	=143-	=143-	=143-
1A	.	1c	-ri-	2e\	.
.	.	.	.	1a	.
2F/	-ri-	1d	-a(m)	.	.
2G/	.	.	.	2g\	-ri-
=144-	=144-	=144-	=144-	=144-	=144-
!LO:TX:t=P:problem=kreska pseudotaktowa	!	!LO:TX:t=P:barlines.color=red:problem	!	!	!
1D;>	-am	1d	.	1f;<	-am
!	!	!	!	!LO:LB:g=original	!
1D	Qui	1d,	Qui	1f	Qui
=145-	=145-	=145-	=145-	=145-	=145-
1E	se-	1G	ſe-	1g	se-
1D	-des	1d,	-des	1f	-des
=146-	=146-	=146-	=146-	=146-	=146-
1A	ad	1c	ad	1e	ad
2F/	.	1f	de-	2f\	dex-
2D/	dex-	.	.	1a\	-te-
=147-	=147-	=147-	=147-	=147-	=147-
2E/	-te-	1e	-te-	.	.
*custos:G	*	*	*	*	*
2C/	.	.	.	1g	-ra(m)
!LO:PB:g=original	!	!	!	!	!
1G	-ra(m)	1d,	-ra(m)	.	.
.	.	.	.	2f\	Pa-
=148-	=148-	=148-	=148-	=148-	=148-
*lig	*	*	*	*	*
1A	Pa-	1c	p(a-	1e	.
1G	.	1d	-t)ris	1g	.
*Xlig	*	*	*	*	*
=149-	=149-	=149-	=149-	=149-	=149-
2D/	.	1d	mi-	2f\	.
1G	-tris	.	.	1g	.
*	*	*custos:e	*	*	*
.	.	1d	.	.	.
2F/	mi-	.	.	2a\	-tris
=150-	=150-	=150-	=150-	=150-	=150-
!	!	!LO:LB:g=original	!	!	!
2E/	.	1e	-ſe-	2g\	.
2C/	-se-	.	.	1e	mi-
1D	-re-	1f	.	.	.
.	.	.	.	2d/	-se-
=151-	=151-	=151-	=151-	=151-	=151-
2C/	-re	1g	.	1e	-re-
1c	No-	.	.	.	.
*	*	*lig	*	*	*
!	!	!	!	!LO:LB:g=original	!
.	.	1f	-re-	1d	.
2B/	.	.	.	.	.
=152-	=152-	=152-	=152-	=152-	=152-
1c	.	1e	.	1c	.
2B/	.	1d	.	2d/	.
2G/	.	.	.	2g\	-re
*	*	*Xlig	*	*	*
=153-	=153-	=153-	=153-	=153-	=153-
1A	.	1c	-re	1e	No-
1D	.	1d	no-	1f	-bis
=154-	=154-	=154-	=154-	=154-	=154-
*custos:D	*	*	*	*	*
!	!	!LO:TX:t=P:barlines.color=red:problem	!	!	!
1D;>	-bis	1d	-b(is)	1f;<	.
!LO:LB:g=original	!	!	!	!	!
1D	Quo-	1d	Quo-	1a	Quo-
=155-	=155-	=155-	=155-	=155-	=155-
1D	-ni-	1d	-ni-	1a	-ni-
1F	-am	1c	-am	1a	-am
=156-	=156-	=156-	=156-	=156-	=156-
*lig	*	*	*	*	*
1G	tu	1B	tu	1g	.
1C	.	1c	.	2e\	tu
.	.	.	.	1g\	.
*Xlig	*	*	*	*	*
=157-	=157-	=157-	=157-	=157-	=157-
*	*	*lig	*	*	*
1D	.	1A	ſo-	.	.
.	.	.	.	2f\	so-
1E	so-	1G	-lus	1g	-lus
*	*	*Xlig	*	*	*
=158-	=158-	=158-	=158-	=158-	=158-
2C/	-lus	1c	ſan-	1e	san-
1c	San-	.	.	.	.
!	!	!	!	!LO:PB:g=original	!
.	.	1d	-ctus	1d	.
2B\	.	.	.	.	.
=159-	=159-	=159-	=159-	=159-	=159-
1c	.	1e	.	2c/	.
.	.	.	.	2g\	.
*	*	*lig	*	*	*
1F	.	1f	.	2f\	.
.	.	.	.	1a\	.
=160-	=160-	=160-	=160-	=160-	=160-
1G	.	1d	.	.	.
.	.	.	.	1g	.
1A	.	1c	.	.	.
.	.	.	.	2f\	-ctus
*	*	*Xlig	*	*	*
=161-	=161-	=161-	=161-	=161-	=161-
!LO:TX:t=P:problem=kreska pseudotaktowa	!	!LO:TX:t=P:barlines.color=red:problem	!	!	!
1G;	-ctus	1d	.	1g;<	.
*	*	*custos:c	*	*	*
1A	Ma-	1A	ma-	2e\	Ma-
.	.	.	.	1a\	-ri-
=162-	=162-	=162-	=162-	=162-	=162-
*custos:E	*	*	*	*	*
!	!	!LO:LB:g=original	!	!	!
2F/	-ri-	1c	-ri-	.	.
!LO:LB:g=original	!	!	!	!	!
2E/	.	.	.	2g\	-am
2D/	.	1d	-am	2f\	.
1d\	-am	.	.	1a\	.
=163-	=163-	=163-	=163-	=163-	=163-
.	.	1d	.	.	.
2B-X\	san-	.	.	2g\	.
*	*	*lig	*	*	*
2A\	.	1f	San-	1a	San-
2F/	.	.	.	.	.
=164-	=164-	=164-	=164-	=164-	=164-
*	*	*	*	*custos:g	*
1c	.	1e	.	1g	.
!	!	!	!	!LO:LB:g=original	!
2G/	.	1d	-cti-	2g\	.
2Bny\	-cti-	.	.	2f\	.
*	*	*Xlig	*	*	*
=165-	=165-	=165-	=165-	=165-	=165-
1A	-fi-	1e	.	1a	-cti-
1A	-cans	1c	-fi-	2e\	-fi-
.	.	.	.	2f\	.
=166-	=166-	=166-	=166-	=166-	=166-
*lig	*	*	*	*	*
1G	.	1d	-ca(ns)	1g	-ca-
!LO:TX:t=P:problem=kreska pseudotaktowa	!	!LO:TX:t=P:barlines.color=red:problem	!	!	!
1D;<	.	1d	.	1f;<	-m(us)
*Xlig	*	*	*	*	*
=167-	=167-	=167-	=167-	=167-	=167-
1E	Tu	1g	Tu	2e\	Tu
.	.	.	.	1c	so-
1D	so-	1f	ſo-	.	.
.	.	.	.	2B/	-lus
=168-	=168-	=168-	=168-	=168-	=168-
*	*	*lig	*	*	*
2C/	-lus	1e	-lus	2c/	.
*custos:B	*	*	*	*	*
1c	.	.	.	1g	do-
.	.	1d	.	.	.
!LO:LB:g=original	!	!	!	!	!
2B\	do-	.	.	2g\	-mi-
*	*	*Xlig	*	*	*
=169-	=169-	=169-	=169-	=169-	=169-
2A\	.	1e	.	2e\	.
2G/	.	.	.	2g\	.
*	*	*	*	*custos:g	*
2F/	.	1c	do-	2a\	.
!	!	!	!	!LO:LB:g=original	!
2E/	.	.	.	1g\	.
=170-	=170-	=170-	=170-	=170-	=170-
1D	-mi-	1d	-mi-	.	.
.	.	.	.	2f\	.
!	!	!LO:TX:t=P:barlines.color=red:problem	!	!	!
1G;>	-nus	1d	-nus	1g;<	-nus
=171-	=171-	=171-	=171-	=171-	=171-
2C/	Ma-	1g	ma-	2e\	Ma-
2E/	-ri-	.	.	1c	.
*	*	*custos:e	*	*	*
1D	-am	1f	-ri-	.	.
.	.	.	.	2B/	-ri-
=172-	=172-	=172-	=172-	=172-	=172-
*	*	*lig	*	*	*
!	!	!LO:LB:g=original	!	!	!
2C/	.	1e	-am	2c/	-am
1c	gu-	.	.	1g	gu-
.	.	1d	.	.	.
2B\	.	.	.	2g\	-ber-
*	*	*Xlig	*	*	*
=173-	=173-	=173-	=173-	=173-	=173-
2A\	.	1e	gu-	2e\	.
2G\	.	.	.	2g\	.
2F/	.	1c	-ber-	2a\	.
2E/	.	.	.	1g\	.
=174-	=174-	=174-	=174-	=174-	=174-
*custos:G	*	*	*	*	*
1D	-ber-	1d	.	.	.
.	.	.	.	2f\	.
!LO:LB:g=original	!	!LO:TX:t=P:barlines.color=red:problem	!	!	!
1G;>	-nans	1d	-na(n)s	1g;<	-nans
=175-	=175-	=175-	=175-	=175-	=175-
*	*	*	*	*custos:f	*
1E	Tu	1g	Tu	1g	Tu
!	!	!	!	!LO:LB:g=original	!
1D	so-	1a	ſo-	1f	so-
=176-	=176-	=176-	=176-	=176-	=176-
2E/	-lus	1g	-lus	1e	-lus
2C/	.	.	.	.	.
1G	al-	1d	al-	2d/	.
.	.	.	.	1g\	al-
=177-	=177-	=177-	=177-	=177-	=177-
2C/	.	1e	-tiſ-	.	.
2c\	.	.	.	2g\	-tis-
1A	.	1f	-si-	1a	-si-
=178-	=178-	=178-	=178-	=178-	=178-
2G/	.	1g	.	2d/	.
2E/	-tis-	.	.	2c/	.
*	*	*lig	*	*	*
1D	.	1f	.	1d	.
=179-	=179-	=179-	=179-	=179-	=179-
1C	.	1e	.	2G/	.
.	.	.	.	1c	.
1G	.	1d	.	.	.
.	.	.	.	2B/	.
=180-	=180-	=180-	=180-	=180-	=180-
*custos:G	*	*	*	*	*
1A	-si-	1c	-mus	2c/	.
.	.	.	.	2A/	.
*	*	*Xlig	*	*	*
!LO:PB:g=original	!	!LO:TX:t=P:barlines.color=red:problem	!	!	!
1G;>	-mus	1d	.	1B;>	-mus
=181-	=181-	=181-	=181-	=181-	=181-
1E	Ma-	1g	Ma-	1g	Ma-
*	*	*	*	*custos:e	*
1D	-ri-	1a	-ri-	1f	-ri-
=182-	=182-	=182-	=182-	=182-	=182-
*	*	*custos:d	*	*	*
!	!	!	!	!LO:LB:g=original	!
2E/	-am	1g	-am	1e	-am
2C/	.	.	.	.	.
!	!	!LO:PB:g=original	!	!	!
1G	co-	1d	co-	2d\	.
.	.	.	.	1g\	co-
=183-	=183-	=183-	=183-	=183-	=183-
2C/	.	1e	.	.	.
2c\	.	.	.	2g\	-ro-
1A	.	1f	-ro-	1a	.
=184-	=184-	=184-	=184-	=184-	=184-
2G/	.	1g	.	2d/	.
2E/	-ro-	.	.	2c/	.
*	*	*lig	*	*	*
1D	-na(n)s	1f	-na(n)s	1d	.
=185-	=185-	=185-	=185-	=185-	=185-
1C	.	1e	.	2G/	.
.	.	.	.	1c	.
1G	.	1d	.	.	.
.	.	.	.	2B/	.
*	*	*Xlig	*	*	*
=186-	=186-	=186-	=186-	=186-	=186-
1A	Je-	1c	Je-	1c	-nans
!LO:LB:g=original	!	!	!	!	!
2D/	-su	1f	-ſu	2d/	Je-
1d\	.	.	.	2a\	-su
=187-	=187-	=187-	=187-	=187-	=187-
.	.	1e	chri-	2g\	cri-
*	*	*	*	*custos:a	*
2c\	cri-	.	.	2e\	.
*	*	*lig	*	*	*
!	!	!	!	!LO:PB:g=original	!
2d\	.	1f	.	1a	.
2D/	.	.	.	.	.
=188-	=188-	=188-	=188-	=188-	=188-
2F/	.	1d	.	2a\	.
2G/	.	.	.	2g\	.
1A	.	1c	.	1e	.
*	*	*Xlig	*	*	*
=189-	=189-	=189-	=189-	=189-	=189-
!	!	!LO:TX:t=P:barlines.color=red:problem	!	!	!
1D	.	1d	-ſte	1f	.
1D;>	-ste	1ryy	.	1f;<	-ste
=190-	=190-	=190-	=190-	=190-	=190-
1C	Cum	1e	Cu(m)	1g	Cum
*	*	*lig	*	*	*
2C/	san-	1c	San-	2g\	san-
2F/	.	.	.	2a\	.
=191-	=191-	=191-	=191-	=191-	=191-
2D/	.	1B	.	2f\	.
2G/	.	.	.	2g\	.
*	*	*Xlig	*	*	*
2C/	.	1c	.	2e/	.
1F\	.	.	.	1a\	.
=192-	=192-	=192-	=192-	=192-	=192-
*	*	*lig	*	*	*
.	.	1A	-cto	.	.
!LO:LB:g=original	!	!	!	!	!
2D/	.	.	.	2f\	-ctis
1G	-cto	1G	.	1g	.
*	*	*Xlig	*	*	*
=193-	=193-	=193-	=193-	=193-	=193-
2E/	spi-	1c	Spi-	2g\	.
!	!	!	!	!LO:LB:g=original	!
2F/	.	.	.	1f	.
2D/	.	1d	.	.	.
2G/	.	.	.	2d/	.
=194-	=194-	=194-	=194-	=194-	=194-
2E/	.	1c	-ri-	2e/	.
1F	.	.	.	1a	spi-
.	.	1d	-tu	.	.
2D/	.	.	.	2a\	-ri-
=195-	=195-	=195-	=195-	=195-	=195-
*	*	*custos:d	*	*	*
1G	-ri-	1d	.	1g	-tu
!	!	!LO:LB:g=original	!	!	!
2F/	-tu	1d	in	2a\	in
2G/	in	.	.	2g\	glo-
=196-	=196-	=196-	=196-	=196-	=196-
2C/	.	1g	glo-	1e	.
2c\	glo-	.	.	.	.
2B\	.	1g	-ri-	2d/	-ri-
2c\	.	.	.	2e\	.
=197-	=197-	=197-	=197-	=197-	=197-
2F/	.	1f	-a	1f	-a
2A/	-ri-	.	.	.	.
2G/	-a	1g	.	2d/	.
!LO:LB:g=original	!	!	!	!	!
1E/	de-	.	.	1g\	de-
=198-	=198-	=198-	=198-	=198-	=198-
.	.	1c	de-	.	.
2F/	-i	.	.	2a\	-i
1D	.	1d	-i	1f	Pa-
=199-	=199-	=199-	=199-	=199-	=199-
2C/	.	1e	pa-	1e	.
2c\	Pa-	.	.	.	.
*	*	*lig	*	*	*
!	!	!	!	!LO:LB:g=original	!
2A\	.	1f	.	1a	-Pa-
2F/	.	.	.	.	.
=200-	=200-	=200-	=200-	=200-	=200-
1G	.	1d	.	1g	.
1A	.	1c	.	1e	.
*	*	*Xlig	*	*	*
=201-	=201-	=201-	=201-	=201-	=201-
2D/	.	1d	.	2d/	.
1d	.	.	.	2f\	.
.	.	1e	.	1e	.
2c\	.	.	.	.	.
=202-	=202-	=202-	=202-	=202-	=202-
*	*	*lig	*	*	*
2d\	.	1f	.	2d/	.
2D/	.	.	.	1a	.
2F/	.	1d	.	.	.
2G/	.	.	.	1g\	.
=203-	=203-	=203-	=203-	=203-	=203-
1A	.	1c	.	.	.
.	.	.	.	2f\	-tris
*	*	*Xlig	*	*	*
!	!	!LO:TX:t=P:barlines.color=red:problem	!	!	!
1G;>	-tris	1d	-tris	1g;<	.
=204-	=204-	=204-	=204-	=204-	=204-
*	*	*lig	*	*	*
!LO:LB:g=original	!	!	!	!	!
1D	A-	1d	A-	1f	A-
*lig	*	*	*	*lig	*
1E	.	1B	.	1g	.
*	*	*Xlig	*	*	*
=205-	=205-	=205-	=205-	=205-	=205-
1C	.	1c	.	1e	.
*Xlig	*	*	*	*Xlig	*
*lig	*	*	*	*	*
1G	.	1B	.	2d\	.
.	.	.	.	1g\	.
=206-	=206-	=206-	=206-	=206-	=206-
1D	.	1A	.	.	.
.	.	.	.	2f\	.
*Xlig	*	*	*	*	*
1d	.	1G	.	1g	.
=207-	=207-	=207-	=207-	=207-	=207-
*	*	*custos:A	*	*	*
!	!	!	!	!LO:LB:g=original	!
2d\	.	1F	.	1a	.
1c	.	.	.	.	.
!	!	!LO:LB:g=original	!	!	!
.	.	1A	.	2a\	.
1A\	.	.	.	1a\	.
=208-	=208-	=208-	=208-	=208-	=208-
.	.	1c	.	.	.
2c\	.	.	.	1g	.
2B\	.	1d	.	.	.
2G/	.	.	.	2g\	.
=209-	=209-	=209-	=209-	=209-	=209-
1A	.	1c	.	2e\	.
.	.	.	.	1f	.
2G/	.	1B	.	.	.
2E/	.	.	.	1e\	.
=210-	=210-	=210-	=210-	=210-	=210-
1F	.	1A	.	.	.
.	.	.	.	2d/	.
1E	.	1B	.	2e/	.
.	.	.	.	1g\	.
=211-	=211-	=211-	=211-	=211-	=211-
1C	.	1c	.	.	.
.	.	.	.	2e/	.
*clefF4	*	*	*	*	*
!LO:PB:g=original	!	!	!	!	!
1G	.	1B	.	2d/	.
.	.	.	.	2g\	.
=212-	=212-	=212-	=212-	=212-	=212-
2D/	.	1A	.	2f\	.
2F/	.	.	.	1a	.
1G	.	1B	.	.	.
.	.	.	.	1g\	.
=213-	=213-	=213-	=213-	=213-	=213-
1D	.	1A	.	.	.
!	!	!	!	!LO:LB:g=original g	!
.	.	.	.	2f\	.
!	!	!	!	!LO:LB:g=original	!
2GG/	.	1G	.	2g\	.
1C/	.	.	.	1e\	.
=214-	=214-	=214-	=214-	=214-	=214-
.	.	1F	-men	.	.
2BB/	.	.	.	2d/	.
2C/	.	1ryy	.	2c/	.
2D/	.	.	.	2B/	.
=215-	=215-	=215-	=215-	=215-	=215-
2E/	.	0ryy	.	2G/	.
2C/	.	.	.	2c/	.
1G	.	.	.	2B/	.
.	.	.	.	2G/	.
=216-	=216-	=216-	=216-	=216-	=216-
2G\	.	0ryy	.	1d	.
2GG/	.	.	.	.	.
!LO:N:vis=00l	!	!	!	!LO:N:vis=0	!
1GG;>	-men	.	.	1d;>	-men
=-	=-	=-	=-	=-	=-
*-	*-	*-	*-	*-	*-
!!!system-decoration: [(s1,s2,s3)]
!!!RDF**kern: < = below
!!!RDF**kern: > = above
!!!ENC: Andrzej Gręziak
!!!END: 2022-01-02
!!!ENC: Marta Chmielewska
!!!END: 2022-01-04
